X:1
T:[ID 11-21b]
T:[ID 11-21b]
T:Bezeichnung standardisiert: Nro 2 Nro 2
T:Urheber unbekannt Datum in der hier transkribierten schriftlichen Quelle: vermutlich um 1800
C:Urheber unbekannt
C:Datum in der hier transkribierten schriftlichen Quelle: vermutlich um 1800
L:1/8
M:3/4
K:Bb
V:1 treble 
V:1
"^=XI,23b" F2 | Bddffd | ceegge | Acceec | BABFDF | Bddffd | ceegge | AcceeA | B4 :: f2 | geBe g2 | %11
 fdBd f2 | ecAceA | BABd f2 | geBe g2 | fdBd f2 | ecAceg | B4 :| %18

